src/img/sprite.svg

<svg xmlns="http://www.w3.org/2000/svg" xmlns:xlink="http://www.w3.org/1999/xlink"><defs>
<clipPath id="clip0">
<rect width="22" height="22"/>
</clipPath>
<clipPath id="clip0"><path d="M0 0h18v18H0z"/></clipPath>
<clipPath id="clip0">
<rect width="16" height="16"/>
</clipPath>
</defs><symbol id="icon-chevron-left" viewBox="0 0 24 24">
<path fill-rule="evenodd" clip-rule="evenodd" d="M13.3625 17.0002C13.1005 17.0002 12.8395 16.8982 12.6435 16.6952L8.78053 12.6953C8.40253 12.3022 8.40753 11.6793 8.79353 11.2933L12.7935 7.29325C13.1835 6.90225 13.8165 6.90225 14.2075 7.29325C14.5975 7.68425 14.5975 8.31625 14.2075 8.70725L10.9025 12.0122L14.0815 15.3053C14.4655 15.7032 14.4545 16.3362 14.0575 16.7192C13.8625 16.9072 13.6125 17.0002 13.3625 17.0002Z"/>
<mask id="mask0" mask-type="alpha" maskUnits="userSpaceOnUse" x="8" y="7" width="7" height="11">
<path fill-rule="evenodd" clip-rule="evenodd" d="M13.3625 17.0002C13.1005 17.0002 12.8395 16.8982 12.6435 16.6952L8.78053 12.6953C8.40253 12.3022 8.40753 11.6793 8.79353 11.2933L12.7935 7.29325C13.1835 6.90225 13.8165 6.90225 14.2075 7.29325C14.5975 7.68425 14.5975 8.31625 14.2075 8.70725L10.9025 12.0122L14.0815 15.3053C14.4655 15.7032 14.4545 16.3362 14.0575 16.7192C13.8625 16.9072 13.6125 17.0002 13.3625 17.0002Z"/>
</mask>
</symbol><symbol id="icon-facebook" viewBox="0 0 22 22">
<g clip-path="url(#clip0)">
<path d="M14.6639 3.65292H16.6723V0.154917C16.3258 0.10725 15.1341 0 13.7463 0C10.8506 0 8.86689 1.82142 8.86689 5.16908V8.25H5.67139V12.1605H8.86689V22H12.7847V12.1614H15.851L16.3377 8.25092H12.7838V5.55683C12.7847 4.42658 13.0891 3.65292 14.6639 3.65292Z"/>
</g>

</symbol><symbol id="icon-instagram" viewBox="0 0 18 18"><g clip-path="url(#clip0)"><path d="M9.003 4.378a4.618 4.618 0 100 9.237 4.618 4.618 0 100-9.237zm0 7.617a2.997 2.997 0 110-5.996 2.997 2.997 0 110 5.996z"/><path d="M12.711.057c-1.656-.077-5.758-.073-7.415 0-1.457.068-2.741.42-3.777 1.456C-.212 3.243.009 5.576.009 8.997c0 3.501-.195 5.78 1.51 7.484 1.738 1.737 4.104 1.51 7.484 1.51 3.468 0 4.665.002 5.891-.473 1.668-.647 2.926-2.137 3.05-4.814.077-1.657.073-5.757 0-7.415-.15-3.16-1.845-5.076-5.233-5.232zm2.621 15.279c-1.134 1.135-2.709 1.033-6.35 1.033-3.75 0-5.254.056-6.352-1.044-1.263-1.258-1.035-3.278-1.035-6.34 0-4.144-.425-7.128 3.734-7.341.955-.034 1.237-.045 3.642-.045l.034.023c3.996 0 7.132-.419 7.32 3.739.043.949.053 1.234.053 3.635 0 3.707.07 5.22-1.046 6.34z"/><path d="M13.804 5.276a1.08 1.08 0 100-2.159 1.08 1.08 0 000 2.159z"/></g></symbol><symbol id="icon-telegram" viewBox="0 0 16 16">
<g clip-path="url(#clip0)">
<path d="M5.8335 11.7412V14.8332C5.8335 15.0492 5.97216 15.2405 6.17749 15.3085C6.22883 15.3252 6.28149 15.3332 6.33349 15.3332C6.48949 15.3332 6.64016 15.2599 6.73616 15.1292L8.54482 12.6679L5.8335 11.7412Z"/>
<path d="M15.79 0.0927257C15.6367 -0.0159409 15.4354 -0.0306076 15.2687 0.0567257L0.268696 7.89006C0.091363 7.98273 -0.0133037 8.17206 0.00136299 8.37139C0.0166963 8.57139 0.149363 8.74206 0.33803 8.80673L4.50803 10.2321L13.3887 2.63873L6.5167 10.9181L13.5054 13.3067C13.5574 13.3241 13.612 13.3334 13.6667 13.3334C13.7574 13.3334 13.8474 13.3087 13.9267 13.2607C14.0534 13.1834 14.1394 13.0534 14.1614 12.9074L15.9947 0.574059C16.022 0.387392 15.9434 0.202059 15.79 0.0927257Z"/>
</g>

</symbol></svg>

<svg xmlns="http://www.w3.org/2000/svg" xmlns:xlink="http://www.w3.org/1999/xlink"><defs><clipPath id="clip0"><path d="M0 0h22v22H0z"/></clipPath><clipPath id="clip0"><path d="M0 0h18v18H0z"/></clipPath><clipPath id="clip0"><path d="M0 0h16v16H0z"/></clipPath></defs><symbol id="icon-chevron-left"><path fill-rule="evenodd" clip-rule="evenodd" d="M13.363 17a.996.996 0 01-.72-.305l-3.862-4a1 1 0 01.013-1.402l4-4a.999.999 0 111.413 1.414l-3.305 3.305 3.18 3.293a1 1 0 01-.72 1.695z"/></symbol><symbol id="icon-facebook"><g clip-path="url(#clip0)"><path d="M14.664 3.653h2.008V.155C16.326.107 15.134 0 13.746 0c-2.895 0-4.88 1.821-4.88 5.17v3.08H5.672v3.91h3.196V22h3.918v-9.839h3.066l.487-3.91h-3.554V5.557c0-1.13.305-1.904 1.88-1.904z"/></g></symbol><symbol id="icon-instagram" viewBox="0 0 18 18"><g clip-path="url(#clip0)"><path d="M9.003 4.378a4.618 4.618 0 100 9.237 4.618 4.618 0 100-9.237zm0 7.617a2.997 2.997 0 110-5.996 2.997 2.997 0 110 5.996z"/><path d="M12.711.057c-1.656-.077-5.758-.073-7.415 0-1.457.068-2.741.42-3.777 1.456C-.212 3.243.009 5.576.009 8.997c0 3.501-.195 5.78 1.51 7.484 1.738 1.737 4.104 1.51 7.484 1.51 3.468 0 4.665.002 5.891-.473 1.668-.647 2.926-2.137 3.05-4.814.077-1.657.073-5.757 0-7.415-.15-3.16-1.845-5.076-5.233-5.232zm2.621 15.279c-1.134 1.135-2.709 1.033-6.35 1.033-3.75 0-5.254.056-6.352-1.044-1.263-1.258-1.035-3.278-1.035-6.34 0-4.144-.425-7.128 3.734-7.341.955-.034 1.237-.045 3.642-.045l.034.023c3.996 0 7.132-.419 7.32 3.739.043.949.053 1.234.053 3.635 0 3.707.07 5.22-1.046 6.34z"/><path d="M13.804 5.276a1.08 1.08 0 100-2.159 1.08 1.08 0 000 2.159z"/></g></symbol><symbol id="icon-telegram"><g clip-path="url(#clip0)"><path d="M5.833 11.741v3.092a.5.5 0 00.903.296l1.809-2.461-2.712-.927zM15.79.093a.5.5 0 00-.521-.036l-15 7.833a.501.501 0 00.069.917l4.17 1.425 8.88-7.593-6.871 8.28 6.988 2.388a.51.51 0 00.422-.046.502.502 0 00.234-.354L15.995.574a.5.5 0 00-.205-.481z"/></g></symbol></svg>
